X:1
T:Title
%%score { ( 1 2 ) | ( 3 4 ) }
L:1/8
Q:1/4=114
M:6/4
K:Ab
V:1 bass nm="Grand Piano"
V:2 bass 
V:3 bass 
V:4 bass 
V:1
 .E6 z6 | B2 A2 F2 [CA]6 | .E6 z6 | c2 B2 F2 B6 | B3 =A B2 d2 c2 B2 | e2 e2 c2 A6 | %6
w: Robert~Harkness||||||
 [=Dc]6 [DF]4 [DB]2 | B12 | c3 c c2 e6 | d3 d [FA]2 [Ec]4 [Ec][Ec] | %10
w: ||||
 [=DF]2 [DG]2 [DA]2 [_DB]4 [DE]2 | [CA]12 |] %12
w: ||
V:2
 [E,C]12 | D6 z6 | [E,C]12 | =D6 z6 | D6 z6 | E6 z6 | x12 | x12 | x12 | x12 | x12 | x12 |] %12
V:3
 z2 z[K:treble] F G2 A2 B2 c2 | [A,,F,]6 [A,,E,]6 | z2 z[K:treble] F G2 A2 B2 c2 | %3
 [B,,A,]6 [E,G,E]6 | [B,,F,]6 [E,G,E]6 | [C,A,]6 [F,CF]6 | [B,,A,]6 [B,,A,]4 [B,,A,]2 | [E,G,E]12 | %8
 [A,E]3 [A,E] [A,E]2 [G,B,E]6 | [F,A,F]3 [F,A,F] [D,A,]2 [A,,A,]4 [A,,A,][A,,A,] | %10
 [B,,A,]2 [B,,G,]2 [B,,F,]2 [E,G,]4 [E,G,]2 | [A,,A,]12 |] %12
V:4
 A,,12[K:treble] | x12 | A,,12[K:treble] | x12 | x12 | x12 | x12 | x12 | x12 | x12 | x12 | x12 |] %12

